lib/brands/icons/brandfolder.svg

<svg xmlns="http://www.w3.org/2000/svg" fill="none" aria-hidden="true" viewBox="0 0 48 48"><g id="brandfolder-Icon"><g id="Group"><path id="Vector" fill="#40D1F5" fill-rule="evenodd" d="M8 39.0549H34.1342V35.0793H11.9756V12.9207H34.1445V27.4671H32.244L36.1169 31.3502L40 27.4671H38.1098V8.9451H8V39.0549ZM18.0777 15.3656C18.5913 15.2835 19.1769 15.2218 19.8549 15.1705C20.5329 15.1191 21.365 15.0986 22.3717 15.0986C23.2449 15.0986 24.077 15.1705 24.8578 15.3143C25.6385 15.4581 26.3268 15.7047 26.9021 16.0437C27.4876 16.3929 27.9396 16.8449 28.2787 17.4202C28.6177 17.9955 28.782 18.7146 28.782 19.5775C28.782 20.0912 28.7101 20.5637 28.556 21.0055C28.4019 21.4472 28.1965 21.8273 27.9499 22.156C27.6931 22.4847 27.4055 22.7518 27.087 22.9676C26.7685 23.1833 26.4398 23.3168 26.1111 23.3579C26.4809 23.4093 26.8815 23.5223 27.3335 23.6969C27.7753 23.8716 28.1965 24.1284 28.5766 24.4777C28.9567 24.8167 29.2854 25.2687 29.5319 25.8029C29.7888 26.3473 29.912 26.9945 29.912 27.765C29.912 28.8026 29.7169 29.6552 29.3265 30.3127C28.9361 30.9804 28.4122 31.4941 27.7445 31.8844C27.087 32.2645 26.3165 32.5316 25.4433 32.6754C24.5701 32.8193 23.6559 32.8912 22.7005 32.8912C21.9608 32.8912 21.2417 32.8706 20.5226 32.8295C19.8035 32.7884 18.992 32.7165 18.0777 32.6035V15.3656ZM21.5499 29.9737V24.9913H22.9881C23.4812 24.9913 23.9332 25.0324 24.3441 25.1146C24.7551 25.1968 25.1043 25.3303 25.4022 25.5358C25.7002 25.731 25.9262 25.9981 26.0803 26.3268C26.2344 26.6555 26.3165 27.0664 26.3165 27.5595C26.3165 28.0835 26.2138 28.5149 26.0083 28.8437C25.8029 29.1724 25.5358 29.4292 25.2173 29.6141C24.8989 29.799 24.5496 29.9223 24.19 29.9839C23.8202 30.0456 23.4709 30.0764 23.1319 30.0764C22.8957 30.0764 22.6286 30.0661 22.3307 30.0559C22.0327 30.0353 21.7759 30.0045 21.5499 29.9737ZM22.608 22.3615H21.5499V17.7592C21.8581 17.7079 22.2279 17.6873 22.6799 17.6873C22.9984 17.6873 23.3271 17.7181 23.6456 17.7695C23.9743 17.8311 24.2722 17.9339 24.5291 18.1085C24.7961 18.2729 25.0119 18.5091 25.1762 18.8071C25.3406 19.105 25.4228 19.4851 25.4228 19.9473C25.4228 20.4302 25.3509 20.8205 25.2071 21.139C25.0632 21.4472 24.8681 21.6937 24.6112 21.8786C24.3544 22.0636 24.0565 22.1868 23.7072 22.2587C23.3785 22.3204 23.0087 22.3615 22.608 22.3615Z" clip-rule="evenodd"/></g></g></svg>

<svg xmlns="http://www.w3.org/2000/svg" fill="none" aria-hidden="true" viewBox="0 0 48 48"><path fill="#40D1F5" fill-rule="evenodd" d="M8 39.055h26.134v-3.976H11.976V12.921h22.169v14.546h-1.901l3.873 3.883L40 27.467h-1.89V8.945H8v30.11Zm10.078-23.69a21.77 21.77 0 0 1 1.777-.194c.678-.052 1.51-.072 2.517-.072.873 0 1.705.072 2.486.215.78.144 1.469.39 2.044.73.586.349 1.038.8 1.377 1.376.339.575.503 1.295.503 2.157 0 .514-.072.987-.226 1.428-.154.442-.36.822-.606 1.151a3.779 3.779 0 0 1-.863.812 2.255 2.255 0 0 1-.976.39c.37.051.77.164 1.223.339a4.034 4.034 0 0 1 2.198 2.106c.257.544.38 1.191.38 1.962 0 1.038-.195 1.89-.585 2.548a4.3 4.3 0 0 1-1.583 1.571c-.657.38-1.427.648-2.3.791-.874.144-1.788.216-2.743.216-.74 0-1.46-.02-2.178-.061a37.258 37.258 0 0 1-2.445-.227V15.366Zm3.472 14.609V24.99h1.438c.493 0 .945.041 1.356.124.411.082.76.215 1.058.42.298.196.524.463.678.792.154.328.237.74.237 1.232 0 .524-.103.956-.309 1.285a2.268 2.268 0 0 1-.79.77 3.082 3.082 0 0 1-1.028.37 6.38 6.38 0 0 1-1.058.092c-.236 0-.503-.01-.801-.02a11.57 11.57 0 0 1-.781-.082Zm1.058-7.613H21.55V17.76a7.034 7.034 0 0 1 1.13-.072c.318 0 .647.031.966.082.328.062.626.165.883.34.267.164.483.4.647.698.165.298.247.678.247 1.14 0 .483-.072.873-.216 1.192a1.849 1.849 0 0 1-.596.74 2.312 2.312 0 0 1-.904.38 5.963 5.963 0 0 1-1.099.102Z" clip-rule="evenodd"/></svg>
